germany/municipalities/07134072.svg

<?xml version="1.0" encoding="UTF-8" standalone="no"?>
<!-- Created with Inkscape (http://www.inkscape.org/) -->

<svg
   xmlns:dc="http://purl.org/dc/elements/1.1/"
   xmlns:cc="http://creativecommons.org/ns#"
   xmlns:rdf="http://www.w3.org/1999/02/22-rdf-syntax-ns#"
   xmlns:svg="http://www.w3.org/2000/svg"
   xmlns="http://www.w3.org/2000/svg"
   xmlns:sodipodi="http://sodipodi.sourceforge.net/DTD/sodipodi-0.dtd"
   xmlns:inkscape="http://www.inkscape.org/namespaces/inkscape"
   width="182.62567mm"
   height="209.3436mm"
   viewBox="0 0 182.62567 209.3436"
   version="1.1"
   id="svg1162"
   inkscape:version="0.92.4 (5da689c313, 2019-01-14)"
   sodipodi:docname="DEU Rötsweiler-Nockenthal COA.svg">
  <defs
     id="defs1156">
    <inkscape:path-effect
       effect="spiro"
       id="path-effect3590"
       is_visible="true" />
    <inkscape:path-effect
       effect="spiro"
       id="path-effect3280"
       is_visible="true" />
    <inkscape:path-effect
       effect="spiro"
       id="path-effect3275"
       is_visible="true" />
    <inkscape:path-effect
       effect="spiro"
       id="path-effect3270"
       is_visible="true" />
    <inkscape:path-effect
       effect="spiro"
       id="path-effect3265"
       is_visible="true" />
    <inkscape:path-effect
       effect="spiro"
       id="path-effect3260"
       is_visible="true" />
    <inkscape:path-effect
       effect="spiro"
       id="path-effect3255"
       is_visible="true" />
    <inkscape:path-effect
       effect="spiro"
       id="path-effect3185"
       is_visible="true" />
    <inkscape:path-effect
       effect="spiro"
       id="path-effect4320-7-8-2-3"
       is_visible="true" />
    <inkscape:path-effect
       effect="spiro"
       id="path-effect4320-9-7-3"
       is_visible="true" />
    <inkscape:path-effect
       effect="spiro"
       id="path-effect4298-0-2-3-7"
       is_visible="true" />
    <inkscape:path-effect
       effect="spiro"
       id="path-effect4298-6-3-0"
       is_visible="true" />
    <inkscape:path-effect
       effect="spiro"
       id="path-effect4294-3-2-9"
       is_visible="true" />
    <inkscape:path-effect
       effect="spiro"
       id="path-effect4290-9-9-0"
       is_visible="true" />
    <inkscape:path-effect
       effect="spiro"
       id="path-effect5719-9"
       is_visible="true" />
    <inkscape:path-effect
       effect="spiro"
       id="path-effect5715-1"
       is_visible="true" />
    <inkscape:path-effect
       effect="spiro"
       id="path-effect5490-8-5"
       is_visible="true" />
    <inkscape:path-effect
       effect="spiro"
       id="path-effect5486-9-0"
       is_visible="true" />
    <inkscape:path-effect
       effect="spiro"
       id="path-effect5482-8-9"
       is_visible="true" />
    <inkscape:path-effect
       effect="spiro"
       id="path-effect5490-0"
       is_visible="true" />
    <inkscape:path-effect
       effect="spiro"
       id="path-effect5486-8"
       is_visible="true" />
    <inkscape:path-effect
       effect="spiro"
       id="path-effect5482-2"
       is_visible="true" />
    <inkscape:path-effect
       effect="spiro"
       id="path-effect5344-1"
       is_visible="true" />
    <inkscape:path-effect
       effect="spiro"
       id="path-effect5340-7"
       is_visible="true" />
    <inkscape:path-effect
       effect="spiro"
       id="path-effect5336-7"
       is_visible="true" />
    <inkscape:path-effect
       effect="spiro"
       id="path-effect5286-6"
       is_visible="true" />
    <inkscape:path-effect
       effect="spiro"
       id="path-effect4567-4"
       is_visible="true" />
    <inkscape:path-effect
       effect="spiro"
       id="path-effect4563-9"
       is_visible="true" />
    <inkscape:path-effect
       effect="spiro"
       id="path-effect4559-3"
       is_visible="true" />
    <inkscape:path-effect
       effect="spiro"
       id="path-effect4320-7-8"
       is_visible="true" />
    <inkscape:path-effect
       effect="spiro"
       id="path-effect4320-9"
       is_visible="true" />
    <inkscape:path-effect
       effect="spiro"
       id="path-effect4298-0-2"
       is_visible="true" />
    <inkscape:path-effect
       effect="spiro"
       id="path-effect4298-6"
       is_visible="true" />
    <inkscape:path-effect
       effect="spiro"
       id="path-effect4294-3"
       is_visible="true" />
    <inkscape:path-effect
       effect="spiro"
       id="path-effect4290-9"
       is_visible="true" />
    <inkscape:path-effect
       effect="spiro"
       id="path-effect4277-7"
       is_visible="true" />
    <inkscape:path-effect
       effect="spiro"
       id="path-effect4273-9"
       is_visible="true" />
    <inkscape:path-effect
       effect="spiro"
       id="path-effect4920-9"
       is_visible="true" />
    <inkscape:path-effect
       effect="spiro"
       id="path-effect5175"
       is_visible="true" />
    <inkscape:path-effect
       effect="spiro"
       id="path-effect5171"
       is_visible="true" />
    <inkscape:path-effect
       effect="spiro"
       id="path-effect5167"
       is_visible="true" />
    <inkscape:path-effect
       effect="spiro"
       id="path-effect5163"
       is_visible="true" />
  </defs>
  <sodipodi:namedview
     id="base"
     pagecolor="#ffffff"
     bordercolor="#666666"
     borderopacity="1.0"
     inkscape:pageopacity="0.0"
     inkscape:pageshadow="2"
     inkscape:zoom="0.69260142"
     inkscape:cx="345.11937"
     inkscape:cy="395.60996"
     inkscape:document-units="mm"
     inkscape:current-layer="layer1"
     showgrid="false"
     inkscape:window-width="1366"
     inkscape:window-height="745"
     inkscape:window-x="-8"
     inkscape:window-y="-8"
     inkscape:window-maximized="1"
     fit-margin-top="0"
     fit-margin-left="0"
     fit-margin-right="0"
     fit-margin-bottom="0"
     inkscape:snap-midpoints="true"
     inkscape:snap-smooth-nodes="true"
     inkscape:snap-nodes="false" />
  <metadata
     id="metadata1159">
    <rdf:RDF>
      <cc:Work
         rdf:about="">
        <dc:format>image/svg+xml</dc:format>
        <dc:type
           rdf:resource="http://purl.org/dc/dcmitype/StillImage" />
        <dc:title></dc:title>
      </cc:Work>
    </rdf:RDF>
  </metadata>
  <g
     inkscape:label="Ebene 1"
     inkscape:groupmode="layer"
     id="layer1"
     transform="translate(-8.0695581,-6.8602639)">
    <path
       style="fill:#009900;fill-opacity:1;fill-rule:evenodd;stroke:none;stroke-width:3.10444427;stroke-opacity:1"
       inkscape:connector-curvature="0"
       d="m 189.13094,8.412486 -0.91039,117.580674 c -1.98659,49.45939 -41.23761,88.63078 -88.83818,88.65847 -47.557706,-0.0606 -86.823414,-39.24616 -88.838145,-88.65847 L 9.633845,8.412486 h 89.746374 z"
       id="path10563-0-6-7-7-5"
       sodipodi:nodetypes="ccccccc" />
    <path
       style="fill:#ffd700;fill-opacity:1;stroke:#000000;stroke-width:5;stroke-linecap:butt;stroke-linejoin:round;stroke-miterlimit:4;stroke-dasharray:none;stroke-opacity:1"
       d="M 683.50195 112.27734 C 631.98683 172.04643 586.45539 237.62799 524.66602 286.43359 C 446.77347 347.95858 348.91558 378.1492 264.82812 430.89258 C 183.95741 481.61825 116.53263 553.51496 70.917969 637.36328 C 93.938622 671.10889 122.53768 700.42569 155.28711 723.85742 C 200.69233 645.10291 265.51042 577.58162 342.5332 529.26953 C 426.62066 476.52615 524.47858 446.33551 602.37109 384.81055 C 631.81093 361.55688 657.5449 334.47737 682.00195 306.04297 L 683.50195 112.27734 z M 84.779297 245.20312 L 54.673828 279.07227 C 69.474318 277.92237 84.653649 282.75303 96.068359 292.24414 C 108.43556 302.52722 116.18015 318.19252 116.76562 334.26562 C 117.31721 349.4085 111.53155 364.68286 101.08594 375.66016 C 112.88449 370.63187 123.49345 362.83835 131.81836 353.08203 C 137.2868 346.67342 141.79093 339.39853 144.71094 331.49609 C 147.63095 323.59366 148.94348 315.05296 148.12695 306.66797 C 147.13131 296.44371 142.98307 286.64777 136.92773 278.34961 C 130.87239 270.05143 122.9584 263.20942 114.25781 257.74805 C 105.17542 252.04702 95.184809 247.79483 84.779297 245.20312 z M 224.18359 245.61719 L 175.02539 249.04688 L 147.58789 278.76953 L 183.02734 263.9082 C 185.37813 268.92397 187.85686 273.87945 190.45898 278.76953 C 191.96716 281.60383 193.52153 284.42685 194.66797 287.42578 C 195.81442 290.42471 196.54533 293.63218 196.33594 296.83594 C 196.09427 300.53226 194.60536 304.06624 192.55078 307.14844 C 190.49622 310.23063 187.88938 312.9023 185.20898 315.45898 C 179.36043 321.0376 173.0831 326.16718 166.45117 330.78711 L 217.89648 418.81445 L 207.60742 430.81836 L 216.18164 439.96484 L 284.20312 397.66602 C 279.34421 398.79031 274.31566 399.17748 269.3418 398.80859 C 264.71993 398.46579 260.02184 397.42051 256.19336 394.80859 C 253.63515 393.06328 251.56131 390.68229 249.83789 388.10938 C 248.11442 385.53639 246.72151 382.75972 245.3125 380.00195 C 232.58646 355.09396 218.26441 331.00151 202.46289 307.92188 L 240.75977 279.91406 L 224.18359 245.61719 z M 96.712891 386.80469 L 56.128906 415.38477 L 79.564453 415.38477 L 109.86133 443.9668 L 169.88086 407.38281 L 161.87695 393.0918 L 133.29688 414.24219 L 96.712891 386.80469 z M 357.36914 538.2832 L 312.7832 578.29492 C 326.04453 593.32304 335.72262 611.49409 340.79297 630.88477 C 344.14938 643.72061 345.50506 657.07776 344.79492 670.32617 C 352.03521 657.8614 358.34623 644.85566 363.6582 631.45508 C 366 625.54745 368.16596 619.48695 368.80273 613.16406 C 369.52239 606.01822 368.25197 598.78765 366.08789 591.93945 C 363.92377 585.09125 360.87904 578.56155 357.94141 572.00781 C 356.06914 567.83075 354.19824 563.42802 354.51172 558.86133 C 354.7041 556.05938 355.74367 553.32002 357.46094 551.09766 C 359.1782 548.87529 361.56569 547.17811 364.22852 546.28516 L 357.36914 538.2832 z M 430.29297 539.48828 C 429.66697 539.47694 429.04003 539.48085 428.41406 539.49219 C 417.56372 539.70686 406.77618 543.21148 397.93945 549.52344 C 387.06348 557.29199 379.25099 569.23792 376.49609 582.31641 C 384.29371 574.84625 395.21458 570.74425 406.00195 571.23438 C 416.3952 571.70659 426.15437 576.17933 435.39648 580.95703 C 444.63856 585.73477 453.84601 590.96016 464.01562 593.15625 C 477.67113 596.10504 492.50082 593.12224 503.95312 585.12109 C 515.40543 577.12025 523.31124 564.22124 525.24023 550.38477 C 516.42626 556.03569 505.77616 558.77024 495.33008 558.06445 C 484.95376 557.36339 475.103 553.41679 465.51562 549.38672 C 455.92825 545.35668 446.23392 541.14776 435.91211 539.875 C 434.04672 539.64483 432.17098 539.51704 430.29297 539.48828 z M 492.8418 605.16211 C 480.66325 611.31329 470.24962 620.90979 463.12695 632.54688 C 456.00424 644.18393 452.19507 657.82507 452.25781 671.46875 C 452.3164 684.23977 455.75756 696.97916 462.13672 708.04297 C 468.51584 719.10682 477.8167 728.46881 488.83984 734.91797 L 536.28516 682.33008 L 527.13867 669.18164 C 526.14915 674.49002 523.27043 679.4261 519.13672 682.90039 C 516.714 684.93661 513.86637 686.48143 510.81055 687.30469 C 507.75472 688.12794 504.49142 688.22126 501.41602 687.47461 C 497.4689 686.51612 493.91408 684.19165 491.21289 681.1582 C 488.51166 678.12475 486.63842 674.40546 485.50195 670.50586 C 483.22906 662.70665 483.85875 654.38255 484.83984 646.31836 C 486.52907 632.43332 489.20491 618.66844 492.8418 605.16211 z M 416.24609 669.75391 C 403.49692 682.25961 385.50593 689.24406 367.6582 688.61719 C 355.95686 688.20616 344.38388 684.6142 334.50586 678.32812 L 306.49609 709.19531 C 318.03478 710.9588 329.37199 714.03412 340.2207 718.3418 C 351.7387 722.91525 362.70403 728.87748 372.80273 736.06055 L 424.82031 676.04102 L 416.24609 669.75391 z "
       transform="matrix(0.26458333,0,0,0.26458333,8.0695581,6.8602639)"
       id="path3183-8" />
    <path
       inkscape:connector-curvature="0"
       style="fill:#ffffff;fill-opacity:1;stroke:#000000;stroke-width:1.32299995;stroke-linecap:round;stroke-linejoin:round;stroke-miterlimit:4;stroke-dasharray:none;stroke-opacity:1;paint-order:markers fill stroke"
       d="M 40.087043,9.4802592 V 39.128061 H 69.734846 V 9.4802592 Z M 69.734846,39.128061 V 68.775348 H 99.382647 V 39.128061 Z m 29.647801,0 H 129.03045 V 9.4802592 H 99.382647 Z m 29.647803,0 v 29.647287 h 29.64729 V 39.128061 Z m 29.64729,0 h 29.6478 V 9.4802592 h -29.6478 z m -118.590697,0 H 10.43924 v 29.647287 h 29.647803 z"
       id="rect4040" />
    <path
       inkscape:connector-curvature="0"
       style="fill:#ff0000;fill-opacity:1;stroke:#000000;stroke-width:1.32299995;stroke-linecap:round;stroke-linejoin:round;stroke-miterlimit:4;stroke-dasharray:none;stroke-opacity:1;paint-order:markers fill stroke"
       d="M 10.43924,9.4802592 V 39.128061 H 40.087043 V 9.4802592 Z M 40.087043,39.128061 V 68.775348 H 69.734846 V 39.128061 Z m 29.647803,0 H 99.382647 V 9.4802592 H 69.734846 Z m 29.647801,0 V 68.775348 H 129.03045 V 39.128061 Z m 29.647803,0 h 29.64729 V 9.4802592 h -29.64729 z m 29.64729,0 v 29.647287 h 29.6478 V 39.128061 Z"
       id="rect4040-4" />
    <path
       style="fill:none;fill-rule:evenodd;stroke:#000000;stroke-width:3.10444427;stroke-opacity:1"
       inkscape:connector-curvature="0"
       d="m 189.13094,8.412486 -0.91039,117.580674 c -1.98659,49.45939 -41.23761,88.63078 -88.838183,88.65847 -47.557703,-0.0606 -86.823412,-39.24616 -88.838142,-88.65847 L 9.633845,8.412486 h 89.746371 z"
       id="path10563-0-6-7-7"
       sodipodi:nodetypes="ccccccc" />
  </g>
</svg>

<svg xmlns="http://www.w3.org/2000/svg" width="690.239" height="791.22" viewBox="0 0 182.626 209.344"><path style="fill:#090;fill-opacity:1;fill-rule:evenodd;stroke:none;stroke-width:3.10444427;stroke-opacity:1" d="m189.13 8.412-.91 117.581c-1.986 49.46-41.237 88.63-88.838 88.659-47.557-.061-86.823-39.247-88.838-88.659l-.91-117.58H99.38z" transform="translate(-8.07 -6.86)"/><path style="fill:gold;fill-opacity:1;stroke:#000;stroke-width:5;stroke-linecap:butt;stroke-linejoin:round;stroke-miterlimit:4;stroke-dasharray:none;stroke-opacity:1" d="M683.502 112.277c-51.515 59.77-97.047 125.351-158.836 174.157-77.893 61.525-175.75 91.715-259.838 144.459-80.87 50.725-148.295 122.622-193.91 206.47 23.02 33.746 51.62 63.063 84.37 86.494 45.404-78.754 110.222-146.275 187.245-194.587 84.088-52.744 181.946-82.934 259.838-144.46 29.44-23.253 55.174-50.333 79.63-78.767l1.5-193.766zM84.779 245.203l-30.105 33.87c14.8-1.15 29.98 3.68 41.394 13.171 12.368 10.283 20.112 25.949 20.698 42.022.551 15.142-5.234 30.417-15.68 41.394a83.725 83.725 0 0 0 30.732-22.578c5.469-6.409 9.973-13.683 12.893-21.586 2.92-7.902 4.232-16.443 3.416-24.828-.996-10.224-5.144-20.02-11.2-28.318-6.055-8.299-13.969-15.14-22.67-20.602a101.878 101.878 0 0 0-29.478-12.545zm139.405.414-49.159 3.43-27.437 29.723 35.44-14.862c2.35 5.016 4.829 9.971 7.431 14.862 1.508 2.834 3.063 5.657 4.209 8.656 1.146 2.999 1.877 6.206 1.668 9.41-.242 3.696-1.73 7.23-3.785 10.312-2.055 3.083-4.662 5.754-7.342 8.311a158.224 158.224 0 0 1-18.758 15.328l51.445 88.027-10.289 12.004 8.575 9.147 68.021-42.299a49.73 49.73 0 0 1-14.861 1.143c-4.622-.343-9.32-1.388-13.149-4-2.558-1.746-4.632-4.127-6.355-6.7-1.724-2.573-3.116-5.35-4.525-8.107a655.766 655.766 0 0 0-42.85-72.08l38.297-28.008-16.576-34.297zM96.713 386.805l-40.584 28.58h23.435l30.297 28.582 60.02-36.584-8.004-14.291-28.58 21.15-36.584-27.437zm260.656 151.478-44.586 40.012c13.262 15.028 22.94 33.2 28.01 52.59a128.935 128.935 0 0 1 4.002 39.441 290.717 290.717 0 0 0 18.863-38.87c2.342-5.909 4.508-11.97 5.145-18.292.72-7.146-.551-14.376-2.715-21.225-2.164-6.848-5.209-13.377-8.147-19.931-1.872-4.177-3.743-8.58-3.43-13.147a14.4 14.4 0 0 1 2.95-7.763 14.396 14.396 0 0 1 6.768-4.813l-6.86-8.002zm72.924 1.205a51.89 51.89 0 0 0-1.879.004c-10.85.215-21.638 3.72-30.475 10.031-10.876 7.769-18.688 19.715-21.443 32.793 7.798-7.47 18.719-11.572 29.506-11.082 10.393.473 20.152 4.945 29.394 9.723 9.243 4.778 18.45 10.003 28.62 12.2 13.655 2.948 28.485-.035 39.937-8.036 11.452-8 19.358-20.9 21.287-34.736-8.814 5.65-19.464 8.385-29.91 7.68-10.376-.702-20.227-4.648-29.814-8.678-9.588-4.03-19.282-8.24-29.604-9.512a52.44 52.44 0 0 0-5.619-.387zm62.549 65.674c-12.179 6.151-22.592 15.748-29.715 27.385-7.123 11.637-10.932 25.278-10.87 38.922.06 12.77 3.5 25.51 9.88 36.574 6.379 11.064 15.68 20.426 26.703 26.875l47.445-52.588-9.146-13.148c-.99 5.308-3.869 10.244-8.002 13.718-2.423 2.037-5.27 3.581-8.326 4.405-3.056.823-6.32.916-9.395.17-3.947-.959-7.502-3.283-10.203-6.317-2.701-3.033-4.575-6.753-5.711-10.652-2.273-7.8-1.643-16.123-.662-24.188a295.692 295.692 0 0 1 8.002-41.156zm-76.596 64.592c-12.75 12.506-30.74 19.49-48.588 18.863-11.701-.41-23.274-4.003-33.152-10.289l-28.01 30.867a154.89 154.89 0 0 1 33.725 9.147 154.907 154.907 0 0 1 32.582 17.719l52.017-60.02-8.574-6.287z" transform="scale(.26458)"/><path style="fill:#fff;fill-opacity:1;stroke:#000;stroke-width:1.32299995;stroke-linecap:round;stroke-linejoin:round;stroke-miterlimit:4;stroke-dasharray:none;stroke-opacity:1;paint-order:markers fill stroke" d="M40.087 9.48v29.648h29.648V9.48zm29.648 29.648v29.647h29.648V39.128zm29.648 0h29.647V9.48H99.383zm29.647 0v29.647h29.648V39.128zm29.648 0h29.648V9.48h-29.648zm-118.591 0H10.439v29.647h29.648z" transform="translate(-8.07 -6.86)"/><path style="fill:red;fill-opacity:1;stroke:#000;stroke-width:1.32299995;stroke-linecap:round;stroke-linejoin:round;stroke-miterlimit:4;stroke-dasharray:none;stroke-opacity:1;paint-order:markers fill stroke" d="M10.44 9.48v29.648h29.647V9.48zm29.647 29.648v29.647h29.648V39.128zm29.648 0h29.648V9.48H69.735zm29.648 0v29.647h29.647V39.128zm29.647 0h29.648V9.48H129.03zm29.648 0v29.647h29.648V39.128z" transform="translate(-8.07 -6.86)"/><path style="fill:none;fill-rule:evenodd;stroke:#000;stroke-width:3.10444427;stroke-opacity:1" d="m189.13 8.412-.91 117.581c-1.986 49.46-41.237 88.63-88.838 88.659-47.557-.061-86.823-39.247-88.838-88.659l-.91-117.58H99.38z" transform="translate(-8.07 -6.86)"/></svg>
